Hatter-kde/actions/24/media-eject.svg

<svg xmlns="http://www.w3.org/2000/svg" viewBox="0 0 24 24">
  <defs id="defs3051">
    <style type="text/css" id="current-color-scheme">
      .ColorScheme-Text {
        color:#363636;
      }
      </style>
  </defs>
 <path style="fill:currentColor;fill-opacity:1;stroke:none" 
     d="M 12 6 L 5 14 L 19 14 L 12 6 z M 5 15.900391 L 5 18 L 19 18 L 19 15.900391 L 5 15.900391 z "
     class="ColorScheme-Text"
     />
</svg>

<?xml version="1.0" encoding="UTF-8"?>
<svg viewBox="0 0 24 24" xmlns="http://www.w3.org/2000/svg">
 <defs id="defs3051">
  <style id="current-color-scheme" type="text/css">.ColorScheme-Text {
        color:#363636;
      }</style>
 </defs>
 <path class="ColorScheme-Text" d="m12 6-7 8h14l-7-8zm-7 9.9004v2.0996h14v-2.0996h-14z" fill="currentColor"/>
</svg>
